;FLAVOR:Marlin
;TIME:6394
;Filament used: 3.80964m
;Layer height: 0.2
;MINX:12.2
;MINY:12.2
;MINZ:0.2
;MAXX:207.794
;MAXY:207.8
;MAXZ:48
;Generated with Cura_SteamEngine main
M82 ;absolute extrusion mode
; Ender 3 Custom Start G-code
G92 E0 ; Reset Extruder
G28 ; Home all axes
M104 S175 ; Start heating up the nozzle most of the way
M190 S61 ; Start heating the bed, wait until target temperature reached
M109 S210.0 ; Finish heating the nozzle
G1 Z2.0 F3000 ; Move Z Axis up little to prevent scratching of Heat Bed
G1 X0.1 Y20 Z0.3 F5000.0 ; Move to start position
G1 X0.1 Y200.0 Z0.3 F1500.0 E15 ; Draw the first line
G1 X0.4 Y200.0 Z0.3 F5000.0 ; Move to side a little
G1 X0.4 Y20 Z0.3 F1500.0 E30 ; Draw the second line
G92 E0 ; Reset Extruder
G1 Z2.0 F3000 ; Move Z Axis up little to prevent scratching of Heat Bed
G1 X5 Y20 Z0.3 F5000.0 ; Move over to prevent blob squish
G92 E0
G92 E0
G1 F1500 E-6.5
;LAYER_COUNT:240
;LAYER:0
M107
;MESH:Nivellierst??ck.stl(2)
G0 F6000 X23.377 Y24.786 Z0.2
;TYPE:WALL-INNER
G1 F1500 E0
G1 F1200 X22.911 Y24.966 E0.01662
G1 X22.503 Y25.06 E0.03054
G1 X21.996 Y25.111 E0.04749
G1 X21.477 Y25.057 E0.06484
G1 X21.079 Y24.963 E0.07845
G1 X20.703 Y24.817 E0.09186
G1 X20.24 Y24.562 E0.10944
G1 X19.77 Y24.171 E0.12978
G1 X19.447 Y23.761 E0.14714
G1 X19.187 Y23.323 E0.16408
G1 X18.975 Y22.73 E0.18502
G1 X18.907 Y22.227 E0.20191
G1 X18.905 Y21.814 E0.21564
G1 X18.959 Y21.39 E0.22986
G1 X19.065 Y21.001 E0.24327
G1 X19.227 Y20.609 E0.25738
G1 X19.443 Y20.245 E0.27145
G1 X19.765 Y19.833 E0.28885
G1 X20.248 Y19.433 E0.3097
G1 X20.655 Y19.207 E0.32519
G1 X21.06 Y19.043 E0.33972
G1 X21.485 Y18.942 E0.35425
G1 X21.996 Y18.889 E0.37134
G1 X22.524 Y18.943 E0.38899
G1 X22.9 Y19.031 E0.40183
G1 X23.377 Y19.214 E0.41883
G1 X23.839 Y19.503 E0.43695
G1 X24.245 Y19.85 E0.45471
G1 X24.542 Y20.226 E0.47065
G1 X24.766 Y20.597 E0.48507
G1 X24.92 Y20.959 E0.49815
G1 X25.034 Y21.362 E0.51208
G1 X25.093 Y21.781 E0.52615
G1 X25.093 Y22.217 E0.54065
G1 X25.04 Y22.611 E0.55388
G1 X24.925 Y23.026 E0.5682
G1 X24.769 Y23.397 E0.58159
G1 X24.556 Y23.755 E0.59544
G1 X24.272 Y24.117 E0.61074
G1 X24.239 Y24.156 E0.61244
G1 X23.837 Y24.499 E0.63002
G1 X23.377 Y24.786 E0.64805
G0 F6000 X23.211 Y24.422
;TYPE:WALL-OUTER
G1 F1200 X22.801 Y24.581 E0.66268
G1 X22.446 Y24.664 E0.67481
G1 X22.02 Y24.708 E0.68905
G1 X21.546 Y24.663 E0.70489
G1 X21.18 Y24.575 E0.71741
G1 X20.856 Y24.447 E0.72899
G1 X20.46 Y24.227 E0.74406
G1 X20.053 Y23.884 E0.76176
G1 X19.764 Y23.516 E0.77733
G1 X19.541 Y23.135 E0.79201
G1 X19.363 Y22.619 E0.81016
G1 X19.305 Y22.189 E0.82459
G1 X19.306 Y21.807 E0.8373
G1 X19.35 Y21.474 E0.84847
G1 X19.453 Y21.103 E0.86128
G1 X19.582 Y20.795 E0.87238
G1 X19.779 Y20.463 E0.88522
G1 X20.042 Y20.128 E0.89939
G1 X20.468 Y19.767 E0.91796
G1 X20.871 Y19.546 E0.93325
G1 X21.198 Y19.419 E0.94492
G1 X21.555 Y19.336 E0.95711
G1 X21.986 Y19.292 E0.97152
G1 X22.453 Y19.337 E0.98712
G1 X22.819 Y19.425 E0.99964
G1 X23.211 Y19.578 E1.01364
G1 X23.614 Y19.835 E1.02953
G1 X23.949 Y20.12 E1.04416
G1 X24.231 Y20.481 E1.0594
G1 X24.41 Y20.779 E1.07096
G1 X24.553 Y21.124 E1.08338
G1 X24.646 Y21.463 E1.09508
G1 X24.694 Y21.814 E1.10686
G1 X24.693 Y22.193 E1.11946
G1 X24.645 Y22.543 E1.13121
G1 X24.546 Y22.897 E1.14344
G1 X24.413 Y23.215 E1.1549
G1 X24.233 Y23.517 E1.1666
G1 X23.958 Y23.869 E1.18145
G1 X23.602 Y24.175 E1.19707
G1 X23.211 Y24.422 E1.21245
G1 F1500 E-5.28755
G0 F6000 X23.383 Y24.891
G0 X23.032 Y25.116
G0 X25.131 Y30.647
G0 X25.024 Y30.901
;TYPE:WALL-INNER
G1 F1500 E1.21245
G1 F1200 X25.613 Y30.677 E1.23341
G1 X26.194 Y30.412 E1.25465
G1 X26.468 Y30.27 E1.26491
G1 X26.739 Y30.117 E1.27526
G1 X27.278 Y29.776 E1.29648
G1 X27.789 Y29.407 E1.31744
G1 X28.274 Y28.999 E1.33852
G1 X28.729 Y28.563 E1.35948
G1 X29.153 Y28.099 E1.38039
G1 X29.546 Y27.603 E1.40143
G1 X29.908 Y27.079 E1.42262
G1 X30.069 Y26.818 E1.43282
G1 X30.38 Y26.257 E1.45415
G1 X30.513 Y25.981 E1.46434
G1 X30.767 Y25.391 E1.48571
G1 X30.977 Y24.791 E1.50685
G1 X31.14 Y24.186 E1.52769
G1 X31.209 Y23.88 E1.53812
G1 X31.267 Y23.572 E1.54855
G1 X31.314 Y23.26 E1.55904
G1 X31.378 Y22.631 E1.58007
G1 X31.394 Y22.321 E1.59039
G1 X31.394 Y21.758 E1.60912
G1 X31.378 Y21.37 E1.62203
G1 X31.346 Y20.999 E1.63442
G1 X31.267 Y20.429 E1.65356
G1 X31.209 Y20.123 E1.66392
G1 X31.06 Y19.498 E1.68529
G1 X30.974 Y19.2 E1.6956
G1 X30.876 Y18.905 E1.70594
G1 X30.643 Y18.307 E1.72729
G1 X30.518 Y18.027 E1.73749
G1 X30.226 Y17.456 E1.75882
G1 X30.072 Y17.185 E1.76919
G1 X29.907 Y16.919 E1.7796
G1 X29.733 Y16.658 E1.79003
G1 X29.352 Y16.143 E1.81134
G1 X29.159 Y15.907 E1.82148
G1 X28.728 Y15.436 E1.84271
G1 X28.506 Y15.216 E1.85311
G1 X28.27 Y14.998 E1.86379
G1 X27.788 Y14.596 E1.88467
G1 X27.274 Y14.22 E1.90585
G1 X27.018 Y14.052 E1.91603
G1 X26.465 Y13.729 E1.93733
G1 X26.193 Y13.588 E1.94752
G1 X25.615 Y13.324 E1.96866
G1 X25.32 Y13.206 E1.97923
G1 X25.025 Y13.1 E1.98965
G1 X24.715 Y13.001 E2.00048
G1 X24.109 Y12.841 E2.02132
G1 X23.494 Y12.72 E2.04217
G1 X23.185 Y12.676 E2.05255
G1 X22.547 Y12.616 E2.07386
G1 X22.235 Y12.603 E2.08425
G1 X21.922 Y12.6 E2.09466
G1 X21.606 Y12.609 E2.10518
G1 X21.242 Y12.632 E2.11731
G1 X20.923 Y12.663 E2.12797
G1 X20.357 Y12.746 E2.14699
G1 X19.733 Y12.879 E2.16821
G1 X19.12 Y13.052 E2.1894
G1 X18.831 Y13.15 E2.19955
G1 X18.237 Y13.387 E2.22082
G1 X17.956 Y13.515 E2.23109
G1 X17.388 Y13.809 E2.25236
G1 X17.124 Y13.964 E2.26254
G1 X16.587 Y14.316 E2.2839
G1 X16.086 Y14.695 E2.30479
G1 X15.846 Y14.897 E2.31523
G1 X15.438 Y15.271 E2.33364
G1 X15.159 Y15.552 E2.34681
G1 X14.947 Y15.785 E2.35728
G1 X14.742 Y16.026 E2.36781
G1 X14.358 Y16.526 E2.38878
G1 X14.181 Y16.782 E2.39913
G1 X13.845 Y17.326 E2.42039
G1 X13.696 Y17.596 E2.43065
G1 X13.414 Y18.171 E2.45195
G1 X13.283 Y18.481 E2.46315
G1 X13.074 Y19.053 E2.4834
G1 X12.982 Y19.352 E2.49381
G1 X12.824 Y19.959 E2.51467
G1 X12.706 Y20.589 E2.53599
G1 X12.665 Y20.893 E2.54619
G1 X12.612 Y21.53 E2.56745
G1 X12.601 Y21.842 E2.57783
G1 X12.609 Y22.416 E2.59692
G1 X12.633 Y22.788 E2.60932
G1 X12.671 Y23.156 E2.62163
G1 X12.76 Y23.725 E2.64078
G1 X12.824 Y24.035 E2.65131
G1 X12.967 Y24.599 E2.67066
G1 X13.071 Y24.937 E2.68243
G1 X13.177 Y25.244 E2.69323
G1 X13.415 Y25.83 E2.71426
G1 X13.694 Y26.403 E2.73546
G1 X14.006 Y26.945 E2.75626
G1 X14.177 Y27.209 E2.76672
G1 X14.545 Y27.727 E2.78786
G1 X14.742 Y27.974 E2.79837
G1 X14.948 Y28.216 E2.80894
G1 X15.158 Y28.447 E2.81932
G1 X15.38 Y28.674 E2.82988
G1 X15.644 Y28.925 E2.842
G1 X16.084 Y29.305 E2.86133
G1 X16.59 Y29.687 E2.88242
G1 X16.851 Y29.864 E2.89291
G1 X17.115 Y30.03 E2.90328
G1 X17.673 Y30.344 E2.92458
G1 X17.949 Y30.481 E2.93482
G1 X18.536 Y30.739 E2.95615
G1 X18.826 Y30.848 E2.96646
G1 X19.122 Y30.948 E2.97685
G1 X19.727 Y31.12 E2.99777
G1 X20.355 Y31.254 E3.01912
G1 X20.66 Y31.303 E3.0294
G1 X20.975 Y31.343 E3.03996
G1 X21.604 Y31.391 E3.06094
G1 X21.921 Y31.4 E3.07149
G1 X22.234 Y31.397 E3.0819
G1 X22.551 Y31.383 E3.09245
G1 X23.125 Y31.332 E3.11162
G1 X23.493 Y31.28 E3.12398
G1 X23.804 Y31.225 E3.13449
G1 X24.101 Y31.162 E3.14458
G1 X24.42 Y31.083 E3.15551
G1 X24.773 Y30.982 E3.16773
G1 X25.024 Y30.901 E3.1765
G0 F6000 X25.156 Y31.279
;TYPE:WALL-OUTER
G1 F1200 X25.767 Y31.046 E3.19825
G1 X26.369 Y30.772 E3.22025
G1 X26.658 Y30.622 E3.23108
G1 X26.944 Y30.461 E3.24199
G1 X27.502 Y30.108 E3.26395
G1 X28.033 Y29.724 E3.28575
G1 X28.541 Y29.297 E3.30782
G1 X28.782 Y29.073 E3.31876
G1 X29.015 Y28.842 E3.32968
G1 X29.241 Y28.603 E3.34062
G1 X29.459 Y28.356 E3.35158
G1 X29.868 Y27.841 E3.37345
G1 X30.243 Y27.298 E3.3954
G1 X30.415 Y27.02 E3.40627
G1 X30.735 Y26.441 E3.42827
G1 X30.877 Y26.147 E3.43913
G1 X31.139 Y25.539 E3.46115
G1 X31.252 Y25.231 E3.47206
G1 X31.36 Y24.907 E3.48342
G1 X31.528 Y24.282 E3.50495
G1 X31.601 Y23.961 E3.5159
G1 X31.661 Y23.639 E3.52679
G1 X31.71 Y23.314 E3.53772
G1 X31.749 Y22.985 E3.54874
G1 X31.777 Y22.658 E3.55966
G1 X31.794 Y22.331 E3.57055
G1 X31.794 Y21.758 E3.58961
G1 X31.781 Y21.4 E3.60152
G1 X31.743 Y20.951 E3.61651
G1 X31.661 Y20.362 E3.63629
G1 X31.6 Y20.039 E3.64722
G1 X31.447 Y19.396 E3.66921
G1 X31.356 Y19.081 E3.68011
G1 X31.252 Y18.769 E3.69105
G1 X31.012 Y18.153 E3.71304
G1 X30.879 Y17.855 E3.72389
G1 X30.578 Y17.266 E3.74589
G1 X30.416 Y16.98 E3.75682
G1 X30.061 Y16.428 E3.77865
G1 X29.668 Y15.897 E3.80062
G1 X29.461 Y15.645 E3.81147
G1 X29.016 Y15.158 E3.83341
G1 X28.741 Y14.888 E3.84623
G1 X28.534 Y14.698 E3.85558
G1 X28.034 Y14.28 E3.87725
G1 X27.502 Y13.891 E3.89917
G1 X27.228 Y13.712 E3.91006
G1 X26.658 Y13.379 E3.93201
G1 X26.369 Y13.228 E3.94286
G1 X25.773 Y12.956 E3.96465
G1 X25.462 Y12.832 E3.97579
G1 X25.153 Y12.721 E3.98671
G1 X24.827 Y12.617 E3.99809
G1 X24.202 Y12.451 E4.0196
G1 X23.558 Y12.325 E4.04142
G1 X23.232 Y12.278 E4.05238
G1 X22.574 Y12.217 E4.07435
G1 X22.245 Y12.203 E4.08531
G1 X21.918 Y12.2 E4.09618
G1 X21.589 Y12.209 E4.10713
G1 X20.932 Y12.259 E4.12905
G1 X20.283 Y12.352 E4.15085
G1 X19.637 Y12.491 E4.17283
G1 X19.002 Y12.67 E4.19477
G1 X18.693 Y12.774 E4.20562
G1 X18.079 Y13.019 E4.2276
G1 X17.781 Y13.155 E4.2385
G1 X17.195 Y13.459 E4.26046
G1 X16.913 Y13.624 E4.27132
G1 X16.359 Y13.987 E4.29335
G1 X16.094 Y14.181 E4.30428
G1 X15.834 Y14.384 E4.31525
G1 X15.338 Y14.814 E4.33708
G1 X14.869 Y15.277 E4.359
G1 X14.647 Y15.521 E4.36997
G1 X14.433 Y15.772 E4.38094
G1 X14.229 Y16.028 E4.39183
G1 X14.033 Y16.293 E4.40279
G1 X13.846 Y16.563 E4.41372
G1 X13.499 Y17.124 E4.43566
G1 X13.341 Y17.411 E4.44655
G1 X13.05 Y18.005 E4.46855
G1 X12.911 Y18.334 E4.48043
G1 X12.695 Y18.925 E4.50136
G1 X12.51 Y19.557 E4.52326
G1 X12.433 Y19.875 E4.53415
G1 X12.311 Y20.525 E4.55614
G1 X12.267 Y20.849 E4.56702
G1 X12.212 Y21.507 E4.58898
G1 X12.201 Y21.836 E4.59993
G1 X12.201 Y22.165 E4.61087
G1 X12.212 Y22.492 E4.62175
G1 X12.24 Y22.888 E4.63496
G1 X12.311 Y23.475 E4.65462
G1 X12.422 Y24.07 E4.67475
G1 X12.51 Y24.443 E4.6875
G1 X12.581 Y24.705 E4.69653
G1 X12.691 Y25.061 E4.70892
G1 X12.802 Y25.384 E4.72028
G1 X13.049 Y25.993 E4.74214
G1 X13.339 Y26.587 E4.76412
G1 X13.498 Y26.875 E4.77507
G1 X13.666 Y27.156 E4.78595
G1 X13.845 Y27.433 E4.79692
G1 X14.225 Y27.968 E4.81875
G1 X14.433 Y28.228 E4.82982
G1 X14.686 Y28.523 E4.84275
G1 X15.098 Y28.958 E4.86268
G1 X15.336 Y29.186 E4.87364
G1 X15.832 Y29.616 E4.89547
G1 X16.093 Y29.82 E4.90649
G1 X16.36 Y30.014 E4.91747
G1 X16.632 Y30.199 E4.92841
G1 X16.911 Y30.374 E4.93936
G1 X17.486 Y30.698 E4.96132
G1 X17.779 Y30.843 E4.97219
G1 X18.385 Y31.109 E4.9942
G1 X18.626 Y31.201 E5.00278
G1 X19 Y31.329 E5.01593
G1 X19.633 Y31.509 E5.03782
G1 X20.281 Y31.648 E5.05986
G1 X20.931 Y31.741 E5.0817
G1 X21.587 Y31.791 E5.10358
G1 X21.917 Y31.8 E5.11456
G1 X22.244 Y31.797 E5.12544
G1 X22.575 Y31.783 E5.13646
G1 X23.168 Y31.73 E5.15626
G1 X23.557 Y31.675 E5.16932
G1 X23.938 Y31.606 E5.1822
G1 X24.522 Y31.47 E5.20215
G1 X24.84 Y31.38 E5.21314
G1 X25.156 Y31.279 E5.22417
G0 F6000 X24.91 Y30.561
;TYPE:SKIN
G1 F1200 X25.472 Y30.344 E5.24421
G1 X26.036 Y30.088 E5.26481
G1 X26.296 Y29.953 E5.27455
G1 X26.555 Y29.807 E5.28444
G1 X27.076 Y29.478 E5.30494
G1 X27.57 Y29.121 E5.32521
G1 X27.801 Y28.933 E5.33512
G1 X28.257 Y28.523 E5.35551
G1 X28.68 Y28.09 E5.37564
G1 X28.876 Y27.867 E5.38552
G1 X29.256 Y27.388 E5.40585
G1 X29.605 Y26.882 E5.4263
G1 X29.758 Y26.635 E5.43596
G1 X30.06 Y26.091 E5.45666
G1 X30.184 Y25.831 E5.46624
G1 X30.431 Y25.26 E5.48693
G1 X30.631 Y24.684 E5.50721
G1 X30.789 Y24.1 E5.52733
G1 X30.855 Y23.809 E5.53726
G1 X30.956 Y23.209 E5.55749
G1 X30.992 Y22.91 E5.56751
G1 X31.034 Y22.31 E5.58752
G1 X31.034 Y21.786 E5.60494
G1 X31.034 Y21.691 E5.6081
G1 X30.992 Y21.09 E5.62814
G1 X30.964 Y20.84 E5.63651
G1 X30.911 Y20.491 E5.64825
G1 X30.855 Y20.2 E5.65811
G1 X30.711 Y19.593 E5.67886
G1 X30.536 Y19.02 E5.69878
G1 X30.31 Y18.447 E5.71927
G1 X30.192 Y18.183 E5.72889
G1 X29.844 Y17.502 E5.75432
G1 X29.439 Y16.867 E5.77937
G1 X29.068 Y16.367 E5.80008
G1 X28.885 Y16.144 E5.80968
G1 X28.469 Y15.687 E5.83023
G1 X28.031 Y15.268 E5.85039
G1 X27.565 Y14.878 E5.8706
G1 X27.07 Y14.516 E5.891
G1 X26.829 Y14.36 E5.90055
G1 X26.289 Y14.045 E5.92134
G1 X26.036 Y13.912 E5.93085
G1 X25.473 Y13.655 E5.95143
G1 X25.179 Y13.536 E5.96198
G1 X24.613 Y13.348 E5.98182
G1 X24.026 Y13.192 E6.00202
G1 X23.434 Y13.076 E6.02208
G1 X23.142 Y13.033 E6.0319
G1 X22.523 Y12.976 E6.05257
G1 X21.929 Y12.96 E6.07234
G1 X21.365 Y12.984 E6.09111
G1 X20.968 Y13.02 E6.10437
G1 X20.424 Y13.1 E6.12266
G1 X19.818 Y13.23 E6.14327
G1 X19.228 Y13.396 E6.16366
G1 X18.957 Y13.487 E6.17317
G1 X18.38 Y13.719 E6.19385
G1 X18.115 Y13.839 E6.20353
G1 X17.561 Y14.126 E6.22428
G1 X17.235 Y14.321 E6.23691
G1 X16.795 Y14.611 E6.25444
G1 X16.313 Y14.976 E6.27455
G1 X16.084 Y15.169 E6.28451
G1 X15.633 Y15.585 E6.30492
G1 X15.37 Y15.855 E6.31745
G1 X15.018 Y16.257 E6.33523
G1 X14.832 Y16.491 E6.34517
G1 X14.482 Y16.981 E6.3652
G1 X14.156 Y17.51 E6.38586
G1 X14.016 Y17.762 E6.39545
G1 X13.743 Y18.322 E6.41617
G1 X13.619 Y18.613 E6.42669
G1 X13.411 Y19.181 E6.44681
G1 X13.26 Y19.704 E6.46492
G1 X13.177 Y20.038 E6.47636
G1 X13.062 Y20.645 E6.49691
G1 X13.023 Y20.932 E6.50655
G1 X12.972 Y21.551 E6.5272
G1 X12.962 Y21.847 E6.53705
G1 X12.969 Y22.402 E6.55552
G1 X12.997 Y22.813 E6.56922
G1 X13.054 Y23.306 E6.58572
G1 X13.164 Y23.897 E6.60572
G1 X13.248 Y24.255 E6.61795
G1 X13.448 Y24.944 E6.64181
G1 X13.745 Y25.681 E6.66824
G1 X14.048 Y26.299 E6.69113
G1 X14.312 Y26.755 E6.70866
G1 X14.473 Y27.005 E6.71855
G1 X14.831 Y27.509 E6.73911
G1 X15.187 Y27.941 E6.75773
G1 X15.421 Y28.198 E6.76929
G1 X15.634 Y28.417 E6.77945
G1 X15.851 Y28.625 E6.78945
G1 X16.312 Y29.024 E6.80972
G1 X16.76 Y29.365 E6.82845
G1 X17.048 Y29.563 E6.84007
G1 X17.356 Y29.752 E6.85209
G1 X17.842 Y30.025 E6.87063
G1 X18.1 Y30.154 E6.88023
G1 X18.673 Y30.404 E6.90102
G1 X18.948 Y30.51 E6.91082
G1 X19.227 Y30.603 E6.9206
G1 X19.813 Y30.768 E6.94085
G1 X20.528 Y30.923 E6.96519
G1 X21.013 Y30.984 E6.98144
G1 X21.621 Y31.031 E7.00173
G1 X21.923 Y31.039 E7.01177
G1 X22.528 Y31.024 E7.0319
G1 X23.135 Y30.968 E7.05218
G1 X23.433 Y30.925 E7.06219
G1 X24.01 Y30.812 E7.08175
G1 X24.328 Y30.736 E7.09262
G1 X24.91 Y30.561 E7.11284
G1 F1500 E0.61284
G0 F6000 X25.18 Y30.735
G0 X25.621 Y30.453
G0 X23.452 Y24.95
G0 X23.576 Y25.094
G1 F1500 E7.11284
G1 F1200 X23.033 Y25.306 E7.13222
G1 X22.59 Y25.411 E7.14737
G1 X21.999 Y25.472 E7.16713
G1 X21.397 Y25.409 E7.18726
G1 X20.98 Y25.312 E7.2015
G1 X20.536 Y25.137 E7.21737
G1 X20.058 Y24.875 E7.2355
G1 X19.508 Y24.423 E7.25918
G1 X19.111 Y23.908 E7.28081
G1 X18.853 Y23.468 E7.29777
G1 X18.62 Y22.799 E7.32133
G1 X18.546 Y22.234 E7.34029
G1 X18.548 Y21.746 E7.35652
G1 X18.567 Y21.595 E7.36158
G1 X18.602 Y21.336 E7.37027
G1 X18.751 Y20.807 E7.38855
G1 X18.932 Y20.396 E7.40349
G1 X19.177 Y19.996 E7.41909
G1 X19.522 Y19.57 E7.43732
G1 X20.042 Y19.13 E7.45998
G1 X20.59 Y18.84 E7.4806
G1 X20.994 Y18.685 E7.49499
G1 X21.406 Y18.589 E7.50906
G1 X22.017 Y18.528 E7.52948
G1 X22.593 Y18.589 E7.54875
G1 X22.985 Y18.68 E7.56213
G1 X23.532 Y18.887 E7.58159
G1 X24.051 Y19.209 E7.6019
G1 X24.472 Y19.566 E7.62026
G1 X24.854 Y20.039 E7.64048
G1 X25.087 Y20.429 E7.65559
G1 X25.274 Y20.873 E7.67162
G1 X25.393 Y21.311 E7.68671
G1 X25.454 Y21.776 E7.70231
G1 X25.452 Y22.255 E7.71824
G1 X25.392 Y22.694 E7.73298
G1 X25.269 Y23.133 E7.74814
G1 X25.097 Y23.551 E7.76318
G1 X24.864 Y23.944 E7.77837
G1 X24.496 Y24.418 E7.79833
G1 X24.05 Y24.79 E7.81765
G1 X23.576 Y25.094 E7.83638
G1 F1500 E1.33638
G0 F6000 X23.559 Y24.796
G0 X21.501 Y25.242
G0 X16.815 Y29.598
G0 X16.329 Y28.775
G1 F1500 E7.83638
G1 F1200 X15.212 Y27.657 E7.88894
G0 F6000 X14.757 Y27.832
G0 X13.547 Y25.872
G0 X14.127 Y26.007
G1 F1200 X18 Y29.88 E8.07111
G0 F6000 X17.791 Y30.29
G0 X18.679 Y30.685
G0 X19.002 Y30.315
G1 F1200 X13.685 Y24.999 E8.32119
G0 F6000 X13.437 Y24.185
G1 F1200 X19.811 Y30.559 E8.621
G0 F6000 X20.537 Y30.72
G1 F1200 X13.287 Y23.47 E8.96202
G0 F6000 X13.198 Y22.814
G1 F1200 X21.178 Y30.795 E9.3374
G0 F6000 X21.783 Y30.834
G1 F1200 X13.166 Y22.217 E9.74271
G0 F6000 X13.168 Y21.653
G1 F1200 X22.342 Y30.827 E10.17423
G0 F6000 X22.87 Y30.79
G1 F1200 X13.207 Y21.126 E10.62877
